X:237
T:Miss Green’s Hornpipe TS.237
M:C
L:1/8
Q:1/2=90
S:Thomas Sands’ MS,1810,Lincolnshire
R:.hornpipe
O:England;Lincolnshire
Z:vmp.Ruairidh Greig, 2011
K:Bb
“qu. in ms”F2|Bd f2fdfd|BdF2BdF2|c=Bcd efgf|edcB AFGA|
Bdf2fdfd|BdF2BdF2|c=Bcd egfe|d2B2B2:|
|:fe|dfdf bfdB|eded efgf|efde cdBc|ABcB AFGA|
BB/c/ dc BAGF|ee/f/ gf edcB|ABcd ecBA|B2B2B2:|]

